contributed-vectors/animeboya.svg

<svg width="192" height="192" version="1.1" viewBox="0 0 192 192" xmlns="http://www.w3.org/2000/svg">
 <circle cx="96" cy="96" r="88" opacity=".63" style="fill:#56595b;opacity:1"/>
 <path d="m52 60v56h4l16-16 8 4v8h-12v24h4l20-16v-56h-20v-4h-20zm44 4v16h24l4-8v20l-3.8828 2.5879-4.1172-6.5879h-20l12 20h-12v12h40l-10.477-16.762 14.477-7.2383v-32h-44zm-24 16h8v12l-8-4v-8z" style="fill:#fff"/>
</svg>

<svg xmlns="http://www.w3.org/2000/svg" width="192" height="192"><circle cx="96" cy="96" r="88" opacity=".63" style="fill:#56595b;opacity:1"/><path d="M52 60v56h4l16-16 8 4v8H68v24h4l20-16V64H72v-4H52zm44 4v16h24l4-8v20l-3.883 2.588L116 88H96l12 20H96v12h40l-10.477-16.762L140 96V64H96zM72 80h8v12l-8-4v-8z" style="fill:#fff"/></svg>
